assets/awselasticcontainerservicecontainer1/original.svg

<svg height="48" viewBox="0 0 48 48" width="48" xmlns="http://www.w3.org/2000/svg"><path d="m38.725 33.735h2v-19.238h-2zm-5.246 0h2v-19.238h-2zm-5.247 0h2v-19.238h-2zm-5.246 0h2v-19.238h-2zm-5.247 0h2v-19.238h-2zm-5.246 0h2v-19.238h-2zm-5.247 0h2v-19.238h-2zm-3.247 2.497h39.973v-24.232h-39.973zm40.973-26.232h-41.972a1 1 0 0 0 -1 1v26.233a1 1 0 0 0 1 1h41.972a1 1 0 0 0 1-1v-26.233a1 1 0 0 0 -1-1" fill="#ed7100" fill-rule="evenodd"/></svg>

<svg xmlns="http://www.w3.org/2000/svg" width="48" height="48" viewBox="0 0 48 48"><title>Icon-Resource/Containers/Res_Amazon-Elastic-Container-Service_Container-1_48</title><g id="Icon-Resource/Containers/Res_Amazon-Elastic-Container-Service_Container-1_48" fill="none" fill-rule="evenodd" stroke="none" stroke-width="1"><path id="Amazon-Elastic-Container-Service-Container-1_Resource-Icon_light-bg" fill="#ed7100" d="M38.725 33.735h2V14.497h-2zm-5.246 0h2V14.497h-2zm-5.247 0h2V14.497h-2zm-5.246 0h2V14.497h-2zm-5.247 0h2V14.497h-2zm-5.246 0h2V14.497h-2zm-5.247 0h2V14.497h-2zm-3.247 2.497h39.973V12H3.999zM44.972 10H3a1 1 0 0 0-1 1v26.233a1 1 0 0 0 1 1h41.972a1 1 0 0 0 1-1V11a1 1 0 0 0-1-1"/></g></svg>
